X: 23
T: Master Crowley's
Z: Jalon
S: https://thesession.org/tunes/281#setting52698
R: reel
M: 4/4
L: 1/8
K: Edor
|: B,2EE B,EFE | EDB,D A,DFD | B,EGE DGAG | FdAF FEED |$
B,2EE B,EFE| EDB,D A,DFD | B,EGE DGAG | FdAF FEED :|$
|: ebgb fbeg | fdad bdad | ebgb fbec | dBA=c BEED |$
ebgb fbeg | fdad bdad | EFGA BABd | AFDE FEED :|

